X:1
T:Title
%%score ( 1 2 ) { 3 | 4 }
L:1/8
Q:1/4=110
M:3/4
K:E
V:1 treble nm="Grand Piano, Soprano"
V:2 treble 
V:3 bass nm="Choir Pad, Adrian, John Edgar Gould"
V:4 bass 
V:1
 EF G3 A | [EG]2 F3 G | [DF]2 [B,E]4 | Be [Ad]3 [DF] | [FA][Ac] [GB]3 B, | [B,E][EG] [DF]4 | %6
w: By~John~Edgar~Gould,~1846 * * *||||||
 [EG]>[B,E] [A,C]4 | [FA]>[CF] [B,D]4 | [EB]>G E4 | [Ac]2 [GB]4 | [F^B]2 [Ec]4 | %11
w: |||||
 [=Ge]2 [^GB]3 [EG] | [DG]>F E4- | E4 z2 |] %14
w: |||
V:2
 z2 E4 | z2 D4 | x6 | G2 z2 z2 | x6 | x6 | x6 | x6 | x6 | x6 | x6 | x6 | x6 | x6 |] %14
V:3
 G,A, B,3 C | B,2 A,3 B, | A,2 G,4 | B,2 B,4 | B,D E3 G, | B,2 B,4 | B,>G, E,4 | C>A, F,4 | %8
 B,2 G,4 | E2 E4 | D2 C2 E2 | E2 E3[K:bass] B, | B,>A, G,4- | G,4 z2 |] %14
V:4
 E,2 E,4 | E,2 B,,4 | B,,2 E,4 | E,2 F,4 | B,,2 E,4 | G,E, B,,4 | G,,2 A,,4 | A,,2 B,,4 | %8
 G,,2 C,4 | A,,2 E,4 | G,2 A,4 | ^A,2 B,4 | B,,2 E,4- | E,4 z2 |] %14

